build/images/img/wordpres.svg

<svg xmlns="http://www.w3.org/2000/svg" width="16" height="16"><path fill-rule="evenodd" fill="#7347C1" d="M.166 7.666a7.5 7.5 0 1015 0 7.5 7.5 0 00-15 0zm.578 0c0-1.004.216-1.956.6-2.817l3.302 9.046A6.924 6.924 0 01.744 7.666zm6.922 6.921a6.931 6.931 0 01-1.955-.281l2.077-6.034 2.128 5.829a.695.695 0 00.049.094 6.89 6.89 0 01-2.299.392zm5.595-7.051c.394-.988.527-1.777.527-2.48 0-.254-.018-.49-.048-.712.54.987.847 2.118.847 3.322a6.915 6.915 0 01-3.44 5.982l2.114-6.112zm-1.493-2.129c.263.461.571 1.054.571 1.909 0 .593-.176 1.338-.527 2.238l-.69 2.306L8.62 4.421c.418-.024.792-.066.792-.066.373-.045.328-.592-.044-.571 0 0-1.121.088-1.845.088-.68 0-1.822-.088-1.822-.088-.374-.021-.417.549-.045.571 0 0 .354.042.727.066L7.46 7.376l-1.514 4.542-2.521-7.497c.417-.024.793-.066.793-.066.373-.045.327-.592-.045-.571 0 0-1.12.088-1.845.088-.13 0-.282-.003-.445-.008A6.916 6.916 0 017.666.744a6.89 6.89 0 014.674 1.818.867.867 0 00-.089-.006c-.681 0-1.162.592-1.162 1.228 0 .571.329 1.054.679 1.623z"/></svg>

<svg 
 xmlns="http://www.w3.org/2000/svg"
 xmlns:xlink="http://www.w3.org/1999/xlink"
 width="16px" height="16px">
<path fill-rule="evenodd"  fill="rgb(115, 71, 193)"
 d="M0.166,7.666 C0.166,11.808 3.524,15.166 7.666,15.166 C11.808,15.166 15.166,11.808 15.166,7.666 C15.166,3.524 11.808,0.165 7.666,0.165 C3.524,0.165 0.166,3.524 0.166,7.666 ZM0.744,7.666 C0.744,6.662 0.960,5.710 1.344,4.849 L4.646,13.895 C2.337,12.773 0.744,10.405 0.744,7.666 ZM7.666,14.587 C6.987,14.587 6.331,14.488 5.711,14.306 L7.788,8.272 L9.916,14.101 C9.930,14.135 9.947,14.165 9.965,14.195 C9.246,14.449 8.472,14.587 7.666,14.587 ZM13.261,7.536 C13.655,6.548 13.788,5.759 13.788,5.056 C13.788,4.802 13.770,4.566 13.740,4.344 C14.280,5.331 14.587,6.462 14.587,7.666 C14.587,10.220 13.204,12.449 11.147,13.648 L13.261,7.536 ZM11.768,5.407 C12.031,5.868 12.339,6.461 12.339,7.316 C12.339,7.909 12.163,8.654 11.812,9.554 L11.122,11.860 L8.620,4.421 C9.038,4.397 9.412,4.355 9.412,4.355 C9.785,4.310 9.740,3.763 9.368,3.784 C9.368,3.784 8.247,3.872 7.523,3.872 C6.843,3.872 5.701,3.784 5.701,3.784 C5.327,3.763 5.284,4.333 5.656,4.355 C5.656,4.355 6.010,4.397 6.383,4.421 L7.460,7.376 L5.946,11.918 L3.425,4.421 C3.842,4.397 4.218,4.355 4.218,4.355 C4.591,4.310 4.545,3.763 4.173,3.784 C4.173,3.784 3.053,3.872 2.328,3.872 C2.198,3.872 2.046,3.869 1.883,3.864 C3.121,1.985 5.249,0.744 7.666,0.744 C9.469,0.744 11.109,1.433 12.340,2.562 C12.311,2.559 12.281,2.556 12.251,2.556 C11.570,2.556 11.089,3.148 11.089,3.784 C11.089,4.355 11.418,4.838 11.768,5.407 Z"/>
</svg>
